X:1
T:O Domine Jesu Christe
C:Giovanni Pierluigi da Palestrina (1525-1594)
Z:Bert Van Vreckem <Bert.VanVreckem@advalvas.be>, 23 jan 2001
%%staves [(1 2) (3 4)]
%%vocalfont Times-Roman 13
M:C
L:1/4
K:GDor %I think
% --- System 1 ---
V:1 clef=treble
%%jsastem=up
G4 | ^F3G | A2 ( B2 | B2 ) A2 | G4 | !fermata!^F4 |
w:O Do-mi-ne Je-_su Chri-ste
V:2 clef=treble
%%jsastem=dn
D4 | D3 E | F2 ( F2 | F2 ) F2 | _E D3/2 C1/4B,1/4 C | !fermata!D4 |
V:3 clef=bass
%%MIDI transpose -24
%%jsastem=up
b4 | a3 b | c'2 ( d'2 | d'2 ) c'2 | b>a g2 | !fermata!a4 |
V:4 clef=bass
%%MIDI transpose -24
%%jsastem=dn
g4 | d3 g | f2 ( B2 | B2 ) f2 | g>f _e2 | !fermata!d4 |
% --- System 2 ---
V:1
z2 ^F2 | G3 G | A2 A ( B | B ) A G G | ^F2 !fermata!G2 |
w: Ad-o-ro te, in cru-_ce vul-ne-ra-tum.
V:2
z2 D2 | D3 E | F2 F ( F | F ) F D C | D2 !fermata!D2 |
V:3
z2 a2 | b3 b | c'2 c' ( d' | d' ) c'bg | a2 !fermata!g2 |
V:4
z2 d2 | g3 g | f2 f ( b | b ) f g _e | d2 !fermata!G2 |
% --- System 3 ---
V:1
z2 ( B2 | B2 ) A2 | z B2 A | G2 G G | G3 !fermata!^F |
w:fel_le et a-ce-to po-ta-tum
V:2
z2 ( G2 | G2 ) ^F2 | z G2 C | _E2 _E_E | B,C D2 |
V:3
z2 ( d'2 | d'2 ) d'2 | z d'2 a | b2 c'c' | g3/2a/ ba |
V:4
z2 ( g2 | d2 ) d2 | z g2 f | _e2 c c | _e2 !fermata!d2 |
% --- System 4 ---
V:1
B2 cc | d2 zd | c>B AA | G2 ( B2 | B ) B cc | A3 "^a-" A | "^ni-" B ( "^mae-" A>G ) "^me-" ( G |
V:2
G2 GA | B2 zB | A>G G^F | G2 ( G2 | G ) GGG | ^F3 ^F | GC _E2 |
w:de-pre-cor te, ut tu-a vul-ne-ra sint_ re-me-di-um a-_ni-mae
V:3
g2 _e'_e' | d'2 z b | f>g d'd' | g2 z ( _e' | _e' ) _e'_e'_e' | d'3 ( d' | d' ) abc' |
w:de-pre-cor te, ut tu-a vul-ne-ra sint_ re-me-di-um a-_ni-mae_
V:4
_e2 cc | B2 z2 | z4 | z2 ( _e2 | _e ) _e cc | d3 d | gf _e c |
% --- System 5 ---
V:1
G ) ^F/E/ ^F2 | "ae" G2 G2 | GG ( G2 | G4 ) | G4 |]
V:2
D4 | =B,3 D | _E D ( E2 | E2 ) D>C | D4 |]
V:3
a4 | g2 z =b | c'd' ( c'2 | c'2 ) =b>a | =b4 |]
w:me-ae, a-ni-mae me-___ae.
V:4
d4 | G2 G2 | c =B c2 | G4 | G4 |]
